pix/hugo.svg

<svg clip-rule="evenodd" fill-rule="evenodd" stroke-linecap="round" stroke-linejoin="round" stroke-miterlimit="1.5" viewBox="0 0 272 282" xmlns="http://www.w3.org/2000/svg"><path d="m167.376 132.778c-1.976 30.692-9.989 39.406-17.234 58.774-9.781 19.021-17.04 22.805-22.516 31.46 3.882 3.802 17.164 15.802 31.38 20.899 40.911 7.949 91.255 7.588 125.099 0 28.192-5.458 46.461-1.925 66.753 14.235 1.167-39.623.746-86.87-17.106-125.368" fill="#c9177e" stroke="#c9177e" stroke-width="4" transform="matrix(1.09329 0 0 1.09329 -135.183 -11.6982)"/><g transform="matrix(1.09329 0 0 1.09329 20.0647 -11.6982)"><path d="m207.3 44.6c-6.7-13.7-22.9-1.6-27-5.9-21-21.6-46.4-27-66.3-28h-11c-20 .5-45.4 6.3-66.3 28-4.1 4.3-20.4-7.8-27 5.9-7.7 16 15.7 17.6 14.5 24.7-2.3 12.8-.8 31.8 1 50.5 2.8 31.7-20.9 107.6 28.4 138.1 9.3 5.8 34.4 9 56.2 9.5h.2c21.8-.5 43.9-3.7 53.2-9.5 49.4-30.5 25.7-106.4 28.6-138.1 1.7-18.7 3.2-37.7 1-50.5-1.2-7.1 22.2-8.8 14.5-24.7z" fill="#8cc5e7" fill-rule="nonzero"/><path d="m143.2 54.3c-33.4 3.9-28.9 38.7-16 50 24 21 49 0 46.2-21.2-2.5-20.4-19.8-30-30.2-28.8z" fill="#e0dedc" fill-rule="nonzero"/><path d="m145.5 72.9c6.292 0 11.4 5.108 11.4 11.4s-5.108 11.4-11.4 11.4-11.4-5.108-11.4-11.4 5.108-11.4 11.4-11.4zm-74.144-.154c6.292 0 11.4 5.108 11.4 11.4s-5.108 11.4-11.4 11.4-11.4-5.108-11.4-11.4 5.108-11.4 11.4-11.4z" fill="#111212"/><path d="m142.5 75.8c1.987 0 3.6 1.613 3.6 3.6s-1.613 3.6-3.6 3.6-3.6-1.613-3.6-3.6 1.613-3.6 3.6-3.6zm-68.226-.608c1.987 0 3.6 1.613 3.6 3.6s-1.613 3.6-3.6 3.6-3.6-1.613-3.6-3.6 1.613-3.6 3.6-3.6z" fill="#fff"/><g fill-rule="nonzero"><path d="m108.5 107c-16 2.4-21.7 7-20.5 14.2 2 11.8 39.7 10.5 40.9.6 1-8.5-14.1-15.7-20.4-14.8z" fill="#b8937f"/><path d="m98.2 111.8c-2.7 9.8 21.7 8.3 21.1 2-.3-3.7-3.6-8.4-12.3-8.2-3.4.1-7.6 1.6-8.8 6.2z"/><path d="m99 127.7c-.9.4-2.4 10.2 2.2 10.7 3.1.3 11.6 1.3 13.6 0 3.9-2.5 3.5-8.5 1.3-10-3.7-2.4-16.1-1.2-17.1-.7zm-25.4-73.4c33.4 3.9 28.9 38.7 16 50-24 21-49 0-46.2-21.2 2.6-20.4 19.9-30 30.2-28.8z" fill="#e0dedc"/></g></g><circle cx="98.125606" cy="80.466147" fill="#111212" r="12.463506" stroke-width="1.09329"/><circle cx="101.405476" cy="75.109026" fill="#fff" r="3.935844" stroke-width="1.09329"/><path d="m193.6 186.7c11 .1 5.6-23.5-1.2-18.8-3.3 2.3-3.9 7.6-3.9 12.1 0 2.5 2 6.6 5.1 6.7zm-170.3 0c-11 .1-5.6-23.5 1.2-18.8 3.3 2.3 3.9 7.6 3.9 12.1 0 2.5-2 6.6-5.1 6.7zm149.4 72.5c-6-8.9-11.4-2-20.1 2.4-4.1 2.1 6.8 9.6 19 4 3.2-1.5 3.1-3.5 1.1-6.4zm-128.5 1c6-8.9 11.4-2 20.1 2.4 4.1 2.1-6.8 9.6-19 4-3.2-1.5-3.1-3.5-1.1-6.4z" fill="#b8937f" fill-rule="nonzero" transform="matrix(1.09329 0 0 1.09329 20.0647 -11.6982)"/><path d="m188.6 47c-.6 2.1 2.1 1.8 3.1 8.3.4 2.4 9-3.5 5.5-7.8-2.9-3.6-8.1-2.6-8.6-.5zm-160.3 0c.6 2.1-2.1 1.8-3.1 8.3-.4 2.4-9-3.5-5.5-7.8 2.8-3.6 8-2.6 8.6-.5z" fill="#0083c0" fill-rule="nonzero" transform="matrix(1.09329 0 0 1.09329 20.0647 -11.6982)"/><g transform="matrix(.45877127 0 0 .45877127 83.379222 145.38072)"><path d="m119.631 36.154 84.191 48.912v96.329l-84.191 47.789-84.053-47.789v-96.329z" fill="#ff4088"/><path d="m207.664 81.239 1.397 2.427v99.143l-1.423 2.444-86.625 49.17-2.768-.001-86.484-49.171-1.421-2.443v-99.141l1.395-2.425 86.482-50.326 2.824-.001zm-166.847 6.839v90.27l78.816 44.811 78.951-44.814v-90.264l-78.951-45.867z" fill="#c9177e"/></g><path d="m179.238 106.552h-24.48v-44.352h-42.624v44.352h-24.48v-104.904h24.48v43.848h42.624v-43.848h24.48z" fill="#fff" fill-rule="nonzero" transform="matrix(.43013351 0 0 .48739804 79.919324 180.170146)"/><path d="m167.5 129.514c17.292 1.627 49.208 5.094 82.624 18.893 33.452-12.226 44.791-18.822 83.752-18.893" fill="none" stroke="#c9177e" stroke-width="4" transform="matrix(1.09329 0 0 1.09329 -135.318 -8.1299)"/><g fill="#c9177e"><path d="m103.229 44.41c24.417 0 38.735 15.657 42.408 31.995 3.855 17.149-24.949 31.995-49.365 31.995s-37.645-30.799-37.645-48.458c0-17.658 20.186-15.532 44.602-15.532zm0 15.532c14.699 0 25.137 5.833 25.137 16.463s-10.438 19.261-25.137 19.261c-14.698 0-28.15-13.044-28.15-23.674 0-10.631 13.452-12.05 28.15-12.05z" transform="matrix(1.09203 0 0 1 -12.71066 3.14785)"/><path d="m101.398 44.41c24.416 0 39.709-1.971 39.709 15.687s-15.293 48.303-39.709 48.303-44.239-14.337-44.239-31.995 19.823-31.995 44.239-31.995zm-2.85 15.687c14.592 0 27.34.815 27.34 11.369 0 10.553-12.748 24.061-27.34 24.061-14.593 0-26.44-8.568-26.44-19.122s11.847-16.308 26.44-16.308z" transform="matrix(1.05263 0 0 1 74.36244 3.14785)"/></g></svg>

<svg id="gopher" width="100%" height="100%" viewBox="0 0 272 282" version="1.1" xmlns="http://www.w3.org/2000/svg" xmlns:xlink="http://www.w3.org/1999/xlink" xml:space="preserve" style="fill-rule:evenodd;clip-rule:evenodd;stroke-linecap:round;stroke-linejoin:round;stroke-miterlimit:1.5;">
    <g transform="matrix(1.09329,0,0,1.09329,-135.183,-11.6982)">
        <path class="gopher-cape animated" d="M167.376,132.778C165.4,163.47 157.387,172.184 150.142,191.552C140.361,210.573 133.102,214.357 127.626,223.012C131.508,226.814 144.79,238.814 159.006,243.911C199.917,251.86 250.261,251.499 284.105,243.911C312.297,238.453 330.566,241.986 350.858,258.146C352.025,218.523 351.604,171.276 333.752,132.778" style="fill:rgb(201,23,126);stroke:rgb(201,23,126);stroke-width:4px;"/>
    </g>
    <g transform="matrix(1.09329,0,0,1.09329,20.0647,-11.6982)">
        <path d="M207.3,44.6C200.6,30.9 184.4,43 180.3,38.7C159.3,17.1 133.9,11.7 114,10.7L103,10.7C83,11.2 57.6,17 36.7,38.7C32.6,43 16.3,30.9 9.7,44.6C2,60.6 25.4,62.2 24.2,69.3C21.9,82.1 23.4,101.1 25.2,119.8C28,151.5 4.3,227.4 53.6,257.9C62.9,263.7 88,266.9 109.8,267.4L110,267.4C131.8,266.9 153.9,263.7 163.2,257.9C212.6,227.4 188.9,151.5 191.8,119.8C193.5,101.1 195,82.1 192.8,69.3C191.6,62.2 215,60.5 207.3,44.6Z" style="fill:rgb(140,197,231);fill-rule:nonzero;"/>
    </g>
    <g transform="matrix(1.09329,0,0,1.09329,20.0647,-11.6982)">
        <path d="M143.2,54.3C109.8,58.2 114.3,93 127.2,104.3C151.2,125.3 176.2,104.3 173.4,83.1C170.9,62.7 153.6,53.1 143.2,54.3Z" style="fill:rgb(224,222,220);fill-rule:nonzero;"/>
    </g>
    <g transform="matrix(1.09329,0,0,1.09329,20.0647,-11.6982)">
        <path class="eyes" d="M145.5,72.9C151.792,72.9 156.9,78.008 156.9,84.3C156.9,90.592 151.792,95.7 145.5,95.7C139.208,95.7 134.1,90.592 134.1,84.3C134.1,78.008 139.208,72.9 145.5,72.9ZM71.356,72.746C77.648,72.746 82.756,77.854 82.756,84.146C82.756,90.438 77.648,95.546 71.356,95.546C65.064,95.546 59.956,90.438 59.956,84.146C59.956,77.854 65.064,72.746 71.356,72.746Z" style="fill:rgb(17,18,18);"/>
    </g>
    <g transform="matrix(1.09329,0,0,1.09329,20.0647,-11.6982)">
        <path d="M142.5,75.8C144.487,75.8 146.1,77.413 146.1,79.4C146.1,81.387 144.487,83 142.5,83C140.513,83 138.9,81.387 138.9,79.4C138.9,77.413 140.513,75.8 142.5,75.8ZM74.274,75.192C76.261,75.192 77.874,76.805 77.874,78.792C77.874,80.779 76.261,82.392 74.274,82.392C72.287,82.392 70.674,80.779 70.674,78.792C70.674,76.805 72.287,75.192 74.274,75.192Z" style="fill:white;"/>
    </g>
    <g transform="matrix(1.09329,0,0,1.09329,20.0647,-11.6982)">
        <path d="M108.5,107C92.5,109.4 86.8,114 88,121.2C90,133 127.7,131.7 128.9,121.8C129.9,113.3 114.8,106.1 108.5,107Z" style="fill:rgb(184,147,127);fill-rule:nonzero;"/>
    </g>
    <g transform="matrix(1.09329,0,0,1.09329,20.0647,-11.6982)">
        <path d="M98.2,111.8C95.5,121.6 119.9,120.1 119.3,113.8C119,110.1 115.7,105.4 107,105.6C103.6,105.7 99.4,107.2 98.2,111.8Z" style="fill-rule:nonzero;"/>
    </g>
    <g transform="matrix(1.09329,0,0,1.09329,20.0647,-11.6982)">
        <path d="M99,127.7C98.1,128.1 96.6,137.9 101.2,138.4C104.3,138.7 112.8,139.7 114.8,138.4C118.7,135.9 118.3,129.9 116.1,128.4C112.4,126 100,127.2 99,127.7ZM73.6,54.3C107,58.2 102.5,93 89.6,104.3C65.6,125.3 40.6,104.3 43.4,83.1C46,62.7 63.3,53.1 73.6,54.3Z" style="fill:rgb(224,222,220);fill-rule:nonzero;"/>
    </g>
    <g transform="matrix(1.09329,0,0,1.09329,20.0647,-11.6982)">
        <circle class="eyes" cx="71.4" cy="84.3" r="11.4" style="fill:rgb(17,18,18);"/>
    </g>
    <g transform="matrix(1.09329,0,0,1.09329,20.0647,-11.6982)">
        <circle cx="74.4" cy="79.4" r="3.6" style="fill:white;"/>
    </g>
    <g transform="matrix(1.09329,0,0,1.09329,20.0647,-11.6982)">
        <path d="M193.6,186.7C204.6,186.8 199.2,163.2 192.4,167.9C189.1,170.2 188.5,175.5 188.5,180C188.5,182.5 190.5,186.6 193.6,186.7ZM23.3,186.7C12.3,186.8 17.7,163.2 24.5,167.9C27.8,170.2 28.4,175.5 28.4,180C28.4,182.5 26.4,186.6 23.3,186.7ZM172.7,259.2C166.7,250.3 161.3,257.2 152.6,261.6C148.5,263.7 159.4,271.2 171.6,265.6C174.8,264.1 174.7,262.1 172.7,259.2ZM44.2,260.2C50.2,251.3 55.6,258.2 64.3,262.6C68.4,264.7 57.5,272.2 45.3,266.6C42.1,265.1 42.2,263.1 44.2,260.2Z" style="fill:rgb(184,147,127);fill-rule:nonzero;"/>
    </g>
    <g transform="matrix(1.09329,0,0,1.09329,20.0647,-11.6982)">
        <path d="M188.6,47C188,49.1 190.7,48.8 191.7,55.3C192.1,57.7 200.7,51.8 197.2,47.5C194.3,43.9 189.1,44.9 188.6,47ZM28.3,47C28.9,49.1 26.2,48.8 25.2,55.3C24.8,57.7 16.2,51.8 19.7,47.5C22.5,43.9 27.7,44.9 28.3,47Z" style="fill:rgb(0,131,192);fill-rule:nonzero;"/>
    </g>
    <g transform="matrix(0.219817,0,0,0.219817,92.037,155.985)">
        <g transform="matrix(2.08706,0,0,2.08706,-39.3863,-48.2414)">
            <path class="gopher-badge animated" d="M119.631,36.154L203.822,85.066L203.822,181.395L119.631,229.184L35.578,181.395L35.578,85.066L119.631,36.154Z" style="fill:rgb(255,64,136);"/>
            <path class="gopher-badge animated" d="M207.664,81.239L209.061,83.666L209.061,182.809L207.638,185.253L121.013,234.423L118.245,234.422L31.761,185.251L30.34,182.808L30.34,83.667L31.735,81.242L118.217,30.916L121.041,30.915L207.664,81.239ZM40.817,88.078L40.817,178.348L119.633,223.159L198.584,178.345L198.584,88.081L119.633,42.214L40.817,88.078Z" style="fill:rgb(201,23,126);"/>
        </g>
        <g transform="matrix(1.95678,0,0,2.21729,-55.1262,110.024)">
            <path class="gopher-badge animated" d="M179.238,106.552L154.758,106.552L154.758,62.2L112.134,62.2L112.134,106.552L87.654,106.552L87.654,1.648L112.134,1.648L112.134,45.496L154.758,45.496L154.758,1.648L179.238,1.648L179.238,106.552Z" style="fill:white;fill-rule:nonzero;"/>
        </g>
    </g>
    <g transform="matrix(1.09329,0,0,1.09329,-135.318,-8.1299)">
        <path class="gopher-cape animated" d="M167.5,129.514C184.792,131.141 216.708,134.608 250.124,148.407C283.576,136.181 294.915,129.585 333.876,129.514" style="fill:none;stroke:rgb(201,23,126);stroke-width:4px;"/>
    </g>
    <g transform="matrix(1,0,0,1,-1.47026,0)">
        <g transform="matrix(1.09203,0,0,1,-11.2404,3.14785)">
            <path class="gopher-cape animated" d="M103.229,44.41C127.646,44.41 141.964,60.067 145.637,76.405C149.492,93.554 120.688,108.4 96.272,108.4C71.856,108.4 58.627,77.601 58.627,59.942C58.627,42.284 78.813,44.41 103.229,44.41ZM103.229,59.942C117.928,59.942 128.366,65.775 128.366,76.405C128.366,87.035 117.928,95.666 103.229,95.666C88.531,95.666 75.079,82.622 75.079,71.992C75.079,61.361 88.531,59.942 103.229,59.942Z" style="fill:rgb(201,23,126);"/>
        </g>
        <g transform="matrix(1.05263,0,0,1,75.8327,3.14785)">
            <path class="gopher-cape animated" d="M101.398,44.41C125.814,44.41 141.107,42.439 141.107,60.097C141.107,77.755 125.814,108.4 101.398,108.4C76.982,108.4 57.159,94.063 57.159,76.405C57.159,58.747 76.982,44.41 101.398,44.41ZM98.548,60.097C113.14,60.097 125.888,60.912 125.888,71.466C125.888,82.019 113.14,95.527 98.548,95.527C83.955,95.527 72.108,86.959 72.108,76.405C72.108,65.851 83.955,60.097 98.548,60.097Z" style="fill:rgb(201,23,126);"/>
        </g>
    </g>
</svg>
